X:445
T: King of the Hill (with piano acc.)
C: BB
R: jig
Q: 1/8=320
M: 6/8
L: 1/8
V: 1 program 1 110 %fiddle
V: 2 volume=70 clef=bass m=D program 1 00
K: G
[V:1] A|"G"BGD "Em"B,EE|"C"CEE "Gdim"^CEE|"G"DEG "Am"AGA|"Em"Bdd "C"edc|
[V:2] z|G,,2[GBD]E,2[EGB]|C,2[EGC]^C,2[^A,GE]|G,,2[GBD]A,,2[ACE]|E,2[EGB]C,2[EGC]|
%
[V:1] "G"BGD "Em"B,EE|"C"CEE "Gdim"^CEE|"G"DEG "D7"Fdc|"G"BGF "G"G2 :|
[V:2] G,,2[GBD]E,2[EGB]|C,,2[EGC]^C,2[^A,GE]|G,,2[GBD]D,2[AFC]|B,,2[GBD][G,,2B,2D2]:|
%
[V:1] A|"G"Bcd "Em7"edd|"G"gdd "Em7"edd|"C"cee "A7"^cag|"D7"fd^c d2 f |
[V:2] z|G,,2[GBD]E,2[DGB]|G,,2[GBD]E,2[DGB]|C,,2[EGC] A,,2[G^CE]|D,2[AFC]A,,2[AFC]|
%
[V:1] "G"gdB "Am"cBA|"G"Bcd BAG|"G"DEG "D7"Fdc|"G"BGF "G"G2 :|
[V:2] G,,2[GBD]A,,2[ACE]|G,,2[GBD]D,2 [GBD]|G,,2[GBD]D,2[AFC]|B,,2[GBD][G,,2B,2D2]:|

%%%%%%%%%%%%%%%%%%%%%%%%%%%%%%%%%%%%%%%%%%%

